X:260
T:Saturday Night Breakdown
R:Reel
M:2/4
L:1/16
K:C
ef|g2ef age2|c2G2 E4|FGFE DEFG|AGG^F G2ef|
g2ef age2|c2G2 E2G2|FEFG dcBd|c2e2 c2:|
|:EG|c2G2 EFGE|c2G2 E2G2|FGFE DEFG|AGG^F G2AB|
c2G2 EFGE|c2G2 E2G2|FEFG dcBd|c2e2 c2:|
